X: 12
T: Ã„lplerkilbi (Schottisch) FBb (pk08779)
B:Hanny Christen. Bd.VII. Bern II, Solothurn. S.376 (pk08779) orig. F,Bb-Dur
S: TÃ¤nze aus dem Kanton Bern (Zusammenfassung) S.375ff
R:Schottisch
O:Switzerland
M:2/4
L:1/8
K:F %%MIDI gchordon
"C"cc/d/ ec | ee/f/ gc | "C7"ba gf | e2z2 |: "F"{/c}dcA2 | {/c}dcA2 | c/d/e/f/ e/d/e/f/ | "C7"gfe2 | {/c}dcG2 | 
{/c}dcG2 | c/d/e/f/ e/f/g/a/ | "F"baf2 | {/c}dcA2 | {/c}dcA2 | c/d/e/f/ e/f/g/a/ |"Bb"c'c' b>b | "C7"ag g/^f/g/a/ | "F"gf f/e/f | 
"C7"e/d/c/b/ a>g | "F"ff fz :: "F"ca/f/ ca/f/ | c3B/c/ | "Gm"db/g/ db/g/ | d3g/f/ | "C7"ec' c'c' | c'3b/c'/ | ba/b/ ag/a/ | 
"F"gf cA/B/ | ca/f/ ca/f/ | c3B/c/ | "Gm"db/g/ db/g/ | d3g/f/ | "C7"ec' c'c' | .c'+>+b2 a/b/ | ag d>e |1 "F"ff fz :|2 
"F"ff f(d/_e/) |: [K:Bb] "Bb"f=e fg | f>d Bd | "Eb"e>g g>b | "Bb"f3 (f/g/) | "F7"aa aa | a>g ee/f/ | "Bb"gg gg | g>f dd/e/ | 
f=e fg | f>d Bd | "Eb"e>g gb | "Bb"f3a/b/ | "F7"c'g gg/a/ | "Bb"bd dd/e/ | "F7"f^f ga | "Bb"bb bz :| 

